X: 13911
T: Foxhunter, The
R: slip jig
M: 9/8
K: Dmajor
|:F2 FD GE|F2 FD ED|~F2 F2 GB|AF DF ED:|
|:B2 BA GA|BE ED GA|B2 BA GB|AD DE FD:|

